X: 1
T: Now She's Purring
M: 4/4
L: 1/8
R: reel
K: Gmaj
G3A B2gB|BAGB AGEG|BGAF GABd|(3efg fa gedB|
G3A B2gB|BAGB AGED|GBAF GABd|(3efg fa g4:|
|:~g3a bgaf|g2ba gfed|AB{c}BA GABd|(3efg fa gfed|
~g3a bgaf|g2ba gfed|Bz{c}BA GABd|(3efg fa g4:|
